packages/ffe-icons/icons/open/400/sm/short_text.svg

<svg xmlns="http://www.w3.org/2000/svg" height="20" viewBox="0 -960 960 960" width="20"><path d="M228-360q-15.3 0-25.65-10.289-10.35-10.29-10.35-25.5Q192-411 202.35-421.5 212.7-432 228-432h312q15.3 0 25.65 10.289 10.35 10.29 10.35 25.5Q576-381 565.65-370.5 555.3-360 540-360H228Zm.292-168Q213-528 202.5-538.289q-10.5-10.29-10.5-25.5Q192-579 202.344-589.5q10.345-10.5 25.637-10.5h503.727Q747-600 757.5-589.711q10.5 10.29 10.5 25.5Q768-549 757.656-538.5 747.311-528 732.019-528H228.292Z"/></svg>

<svg xmlns="http://www.w3.org/2000/svg" height="20" viewBox="0 -960 960 960" width="20"><path d="M228-360q-15.3 0-25.65-10.29Q192-380.58 192-395.79t10.35-25.71Q212.7-432 228-432h312q15.3 0 25.65 10.29Q576-411.42 576-396.21t-10.35 25.71Q555.3-360 540-360H228Zm.29-168q-15.29 0-25.79-10.29t-10.5-25.5q0-15.21 10.34-25.71 10.35-10.5 25.64-10.5h503.73q15.29 0 25.79 10.29t10.5 25.5q0 15.21-10.34 25.71-10.35 10.5-25.64 10.5H228.29Z"/></svg>
